src/images/login.svg

<svg width="26" height="26" viewBox="0 0 26 26" fill="none" xmlns="http://www.w3.org/2000/svg">
    <circle cx="12.9992" cy="12.5714" r="11.5714" stroke="#C4C4C4" stroke-width="2"/>
    <path d="M12.8921 14.6557C12.0034 14.6557 11.1346 14.3894 10.3956 13.8903C9.65659 13.3912 9.08063 12.6817 8.74051 11.8517C8.40039 11.0218 8.31139 10.1085 8.48478 9.22735C8.65817 8.34625 9.08615 7.53696 9.7146 6.90172C10.3431 6.26648 11.1438 5.83383 12.0155 5.65856C12.8872 5.4833 13.7906 5.57327 14.6118 5.91706C15.4329 6.26084 16.1347 6.84302 16.6285 7.58998C17.1223 8.33695 17.3858 9.21518 17.3858 10.1135C17.3858 11.3182 16.9124 12.4735 16.0696 13.3254C15.2269 14.1772 14.0839 14.6557 12.8921 14.6557ZM12.8921 7.94117C12.4671 7.94117 12.0516 8.0686 11.6981 8.3073C11.3447 8.546 11.0692 8.88525 10.9066 9.2822C10.7439 9.67915 10.7013 10.116 10.7843 10.5373C10.8672 10.9587 11.0718 11.3458 11.3724 11.6496C11.673 11.9534 12.0559 12.1603 12.4728 12.2441C12.8897 12.328 13.3219 12.285 13.7146 12.1205C14.1073 11.9561 14.4429 11.6777 14.6791 11.3204C14.9152 10.9632 15.0413 10.5432 15.0413 10.1135C15.0413 9.53739 14.8149 8.98482 14.4118 8.57742C14.0088 8.17002 13.4621 7.94117 12.8921 7.94117Z" fill="#C4C4C4"/>
    <path d="M21.5864 21.5713C19.075 19.7131 16.0434 18.7115 12.9311 18.7115C9.81871 18.7115 6.78721 19.7131 4.27581 21.5713L3.00586 19.5965C5.90043 17.4926 9.37561 16.3607 12.9408 16.3607C16.5061 16.3607 19.9812 17.4926 22.8758 19.5965L21.5864 21.5713Z" fill="#C4C4C4"/>
</svg>

<svg width="26" height="26" viewBox="0 0 26 26" fill="none" xmlns="http://www.w3.org/2000/svg"><circle cx="12.999" cy="12.571" r="11.571" stroke="#C4C4C4" stroke-width="2"/><path d="M12.892 14.656a4.46 4.46 0 01-2.496-.766 4.532 4.532 0 01-1.655-2.038 4.588 4.588 0 01-.256-2.625 4.557 4.557 0 011.23-2.325 4.48 4.48 0 012.3-1.243 4.45 4.45 0 012.597.258 4.505 4.505 0 012.016 1.673 4.577 4.577 0 01-.558 5.735 4.47 4.47 0 01-3.178 1.33zm0-6.715c-.425 0-.84.128-1.194.366a2.167 2.167 0 00-.791.975 2.193 2.193 0 00.465 2.368 2.127 2.127 0 002.342.47c.393-.164.729-.442.965-.8a2.19 2.19 0 00-.267-2.743 2.137 2.137 0 00-1.52-.636zM21.586 21.571a14.549 14.549 0 00-8.655-2.86 14.549 14.549 0 00-8.655 2.86l-1.27-1.975a16.894 16.894 0 019.935-3.235c3.565 0 7.04 1.132 9.935 3.235l-1.29 1.975z" fill="#C4C4C4"/></svg>
